X: 10344
M: C
L: 1/8
K: C
|: ef |\
gfed c_BAG | A2F2 F2fg | agfe dcBA | B2G2 G2ef |\
gege fafa  | gege fafa | geaf edcB | c2c2 c2  :|



